packages/editor-ui/src/assets/images/aws-secrets-manager.svg

<svg xmlns="http://www.w3.org/2000/svg" width="80" height="80"><defs><linearGradient id="a" x1="0%" x2="100%" y1="100%" y2="0%"><stop offset="0%" stop-color="#BD0816"/><stop offset="100%" stop-color="#FF5252"/></linearGradient></defs><g fill="none" fill-rule="evenodd"><path fill="url(#a)" d="M0 0h80v80H0z"/><path fill="#FFF" d="M38.76 43.36A1.241 1.241 0 1 0 40 42.12c-.683 0-1.24.556-1.24 1.24m-2 0A3.243 3.243 0 0 1 40 40.12a3.243 3.243 0 0 1 3.24 3.24A3.23 3.23 0 0 1 41 46.426V49h-2v-2.574a3.23 3.23 0 0 1-2.24-3.066M49 38H31v13h18v-3h-3v-2h3v-3h-3v-2h3zm-15-2h11.999L46 31c.001-2.616-2.857-4.998-5.996-5h-.003a6.6 6.6 0 0 0-4.238 1.575c-1.12.962-1.763 2.211-1.763 3.426zm14-4.999L47.999 36H50a1 1 0 0 1 1 1v15a1 1 0 0 1-1 1H30a1 1 0 0 1-1-1V37a1 1 0 0 1 1-1h2v-5c.001-1.798.897-3.599 2.459-4.942A8.63 8.63 0 0 1 40.001 24h.003c4.261.002 7.997 3.273 7.996 7.001M19.207 55.049l1.621-1.172c-2.735-3.78-4.247-8.215-4.432-12.877H19v-2h-2.601c.199-4.634 1.709-9.043 4.429-12.802l-1.621-1.173c-2.968 4.103-4.608 8.917-4.808 13.975H12v2h2.396c.186 5.086 1.828 9.926 4.811 14.049m34.631 4.159c-3.769 2.728-8.19 4.238-12.838 4.431V61h-2v2.639c-4.648-.192-9.07-1.702-12.841-4.431l-1.171 1.62c4.112 2.977 8.94 4.617 14.012 4.811V68h2v-2.361c5.072-.194 9.898-1.834 14.01-4.811zM26.159 20.866c3.771-2.728 8.193-4.238 12.841-4.43V19h2v-2.564c4.648.192 9.069 1.702 12.838 4.43l1.172-1.62c-4.112-2.976-8.938-4.616-14.01-4.81V12h-2v2.436c-5.072.193-9.9 1.833-14.012 4.81zM65.599 39c-.2-5.058-1.84-9.872-4.809-13.975l-1.621 1.173C61.89 29.957 63.4 34.366 63.599 39H61v2h2.602c-.186 4.662-1.697 9.097-4.433 12.877l1.621 1.172c2.984-4.123 4.625-8.963 4.812-14.049H68v-2zm-9.213-13.936 7.84-7.84-1.414-1.414-7.84 7.84zM23.612 55.01l-7.84 7.84 1.414 1.414 7.84-7.84zm5.054-27.757-14.841-14.84-1.414 1.414 14.841 14.84zM54.193 52.78l13.393 13.393-1.414 1.414-13.393-13.393z"/></g></svg>

<?xml version="1.0" encoding="UTF-8"?>
<svg width="80px" height="80px" viewBox="0 0 80 80" version="1.1" xmlns="http://www.w3.org/2000/svg" xmlns:xlink="http://www.w3.org/1999/xlink">
    <!-- Generator: Sketch 64 (93537) - https://sketch.com -->
    <title>Icon-Architecture/64/Arch_AWS-Secrets-Manager_64</title>
    <desc>Created with Sketch.</desc>
    <defs>
        <linearGradient x1="0%" y1="100%" x2="100%" y2="0%" id="linearGradient-1">
            <stop stop-color="#BD0816" offset="0%"></stop>
            <stop stop-color="#FF5252" offset="100%"></stop>
        </linearGradient>
    </defs>
    <g id="Icon-Architecture/64/Arch_AWS-Secrets-Manager_64" stroke="none" stroke-width="1" fill="none" fill-rule="evenodd">
        <g id="Icon-Architecture-BG/64/Security-Identity-Compliance" fill="url(#linearGradient-1)">
            <rect id="Rectangle" x="0" y="0" width="80" height="80"></rect>
        </g>
        <path d="M38.76,43.36 C38.76,44.044 39.317,44.6 40,44.6 C40.684,44.6 41.24,44.044 41.24,43.36 C41.24,42.676 40.684,42.12 40,42.12 C39.317,42.12 38.76,42.676 38.76,43.36 L38.76,43.36 Z M36.76,43.36 C36.76,41.573 38.213,40.12 40,40.12 C41.787,40.12 43.24,41.573 43.24,43.36 C43.24,44.796 42.296,46.002 41,46.426 L41,49 L39,49 L39,46.426 C37.704,46.002 36.76,44.796 36.76,43.36 L36.76,43.36 Z M49,38 L31,38 L31,51 L49,51 L49,48 L46,48 L46,46 L49,46 L49,43 L46,43 L46,41 L49,41 L49,38 Z M34,36 L45.999,36 L46,31 C46.001,28.384 43.143,26.002 40.004,26 L40.001,26 C38.472,26 36.928,26.574 35.763,27.575 C34.643,28.537 34,29.786 34,31.001 L34,36 Z M48,31.001 L47.999,36 L50,36 C50.553,36 51,36.448 51,37 L51,52 C51,52.552 50.553,53 50,53 L30,53 C29.447,53 29,52.552 29,52 L29,37 C29,36.448 29.447,36 30,36 L32,36 L32,31 C32.001,29.202 32.897,27.401 34.459,26.058 C35.982,24.75 38.001,24 40.001,24 L40.004,24 C44.265,24.002 48.001,27.273 48,31.001 L48,31.001 Z M19.207,55.049 L20.828,53.877 C18.093,50.097 16.581,45.662 16.396,41 L19,41 L19,39 L16.399,39 C16.598,34.366 18.108,29.957 20.828,26.198 L19.207,25.025 C16.239,29.128 14.599,33.942 14.399,39 L12,39 L12,41 L14.396,41 C14.582,46.086 16.224,50.926 19.207,55.049 L19.207,55.049 Z M53.838,59.208 C50.069,61.936 45.648,63.446 41,63.639 L41,61 L39,61 L39,63.639 C34.352,63.447 29.93,61.937 26.159,59.208 L24.988,60.828 C29.1,63.805 33.928,65.445 39,65.639 L39,68 L41,68 L41,65.639 C46.072,65.445 50.898,63.805 55.01,60.828 L53.838,59.208 Z M26.159,20.866 C29.93,18.138 34.352,16.628 39,16.436 L39,19 L41,19 L41,16.436 C45.648,16.628 50.069,18.138 53.838,20.866 L55.01,19.246 C50.898,16.27 46.072,14.63 41,14.436 L41,12 L39,12 L39,14.436 C33.928,14.629 29.1,16.269 24.988,19.246 L26.159,20.866 Z M65.599,39 C65.399,33.942 63.759,29.128 60.79,25.025 L59.169,26.198 C61.89,29.957 63.4,34.366 63.599,39 L61,39 L61,41 L63.602,41 C63.416,45.662 61.905,50.097 59.169,53.877 L60.79,55.049 C63.774,50.926 65.415,46.086 65.602,41 L68,41 L68,39 L65.599,39 Z M56.386,25.064 L64.226,17.224 L62.812,15.81 L54.972,23.65 L56.386,25.064 Z M23.612,55.01 L15.772,62.85 L17.186,64.264 L25.026,56.424 L23.612,55.01 Z M28.666,27.253 L13.825,12.413 L12.411,13.827 L27.252,28.667 L28.666,27.253 Z M54.193,52.78 L67.586,66.173 L66.172,67.587 L52.779,54.194 L54.193,52.78 Z" id="AWS-Secrets-Manager_Icon_64_Squid" fill="#FFFFFF"></path>
    </g>
</svg>
